!!! OTL: Literature145
!!! Chapter: 5
!!! Section: IV
!!! Page: 379
!!! Mode: 
!!! Encoder: DJB
**kern
*staff1
*I"Piano
=1-
*clefG2
*k[b-]
*D:
*M4/4
16d/LL
16e/J
8f/J
8e/L
8d/J
8a/
4dd\
8a/
=2
8b-/L
16g/L
16e/JJ
8a/L
16f/L
16d/JJ
8g/L
16e/L
16c#/JJ
8A/L
[8b-/J
=3
8b-/L]
16g/L
16e/JJ
8A/L
[8cc#/J
8cc#/L]
16b-/L
16g/JJ
8A/L
[8ee/J
=4
!!linebreak:original
8ee\L]
16cc#\L
16a\JJ
16b-/LL
16g/
16a/
16f/JJ
16g/LL
16e/
16f/
16d/JJ
16e/LL
16c#/
16d/
16Bn/JJ
=5
16c#/LL
16A/
16Bn/
16c#/JJ
16d/LL
16e/
16f/
16g/JJ
16a\LL
16b-\J
8cc\J
16cc\LL
16dd\J
8ee-\J
=6
8f#/L
8g/
8c#/
8d/J
8G#/
8r
8A/
8r
=7
!!linebreak:original
4d/
4r
2r
==
*-
